src/svgs/close.svg

<svg fill="none" height="22" viewBox="0 0 21 22" width="21" xmlns="http://www.w3.org/2000/svg"><path d="m12.41 11.0002 8.29-8.29001c.1638-.19131.2494-.43738.2397-.68906-.0097-.25167-.1141-.49041-.2922-.66851-.1781-.17809-.4168-.28242-.6685-.29215-.2516-.00972-.4977.07589-.689.23972l-8.29 8.29-8.29003-8.3c-.1883-.18831-.4437-.294096-.71-.294096s-.52169.105786-.71.294096c-.1883.1883-.294089.44369-.294089.71 0 .2663.105789.52169.294089.71l8.3 8.29001-8.3 8.29c-.10468.0896-.1897.2-.24972.324-.060025.1241-.093756.2592-.099075.3969-.00532.1377.017886.2751.068165.4034.05027.1283.12653.2449.22398.3423.09746.0975.214.1737.34233.224s.26566.0735.40338.0682.27285-.0391.39691-.0991c.12407-.06.23439-.145.32403-.2497l8.30003-8.29 8.29 8.29c.1913.1638.4374.2494.689.2397.2517-.0097.4904-.1141.6685-.2922.1781-.178.2825-.4168.2922-.6685.0097-.2516-.0759-.4977-.2397-.689z" fill="#fff"/></svg>

<svg width="21" height="22" viewBox="0 0 21 22" fill="none" xmlns="http://www.w3.org/2000/svg">
<path d="M12.41 11.0002L20.7 2.71019C20.8638 2.51888 20.9494 2.27281 20.9397 2.02113C20.93 1.76946 20.8256 1.53072 20.6475 1.35262C20.4694 1.17453 20.2307 1.0702 19.979 1.06047C19.7274 1.05075 19.4813 1.13636 19.29 1.30019L11 9.59019L2.70997 1.29019C2.52167 1.10188 2.26627 0.996094 1.99997 0.996094C1.73367 0.996094 1.47828 1.10188 1.28997 1.29019C1.10167 1.47849 0.995881 1.73388 0.995881 2.00019C0.995881 2.26649 1.10167 2.52188 1.28997 2.71019L9.58997 11.0002L1.28997 19.2902C1.18529 19.3798 1.10027 19.4902 1.04025 19.6142C0.980225 19.7383 0.946494 19.8734 0.941175 20.0111C0.935855 20.1488 0.959061 20.2862 1.00934 20.4145C1.05961 20.5428 1.13587 20.6594 1.23332 20.7568C1.33078 20.8543 1.44732 20.9305 1.57565 20.9808C1.70398 21.0311 1.84131 21.0543 1.97903 21.049C2.11675 21.0437 2.25188 21.0099 2.37594 20.9499C2.50001 20.8899 2.61033 20.8049 2.69997 20.7002L11 12.4102L19.29 20.7002C19.4813 20.864 19.7274 20.9496 19.979 20.9399C20.2307 20.9302 20.4694 20.8258 20.6475 20.6477C20.8256 20.4697 20.93 20.2309 20.9397 19.9792C20.9494 19.7276 20.8638 19.4815 20.7 19.2902L12.41 11.0002Z" fill="white"/>
</svg>
